X:0697
T:Highland Fair.
M:C
L:1/8
Q:1/2=104
I: :: :|
Z:Jack Campin * www.campin.me.uk * 2009
K:D
d|A2AB    Acde   |gfed cdeg|fdad f2ed   |cdeg  fdd:|
b|adfe/d/ adfe/d/|affd ceeb|adfd adfe/d/|c>deg fdd:|

